X:1
T:J.S. Bach -  Minuet From Orchestral Suite No. 2 in B minor
T:"J.S. Bach -  Minuet in B minor"
T:( From Orchestral Suite No. 2 BWV 1067) Arranged And Transcribed for 2 Violins 
T:J.S. Bach Arr. by Philip R.M . 
T:( 1685 - 1750 )
C:Johann Sebastian Bach
Z:( 1685 - 1750 )
%%score 1 2
L:1/8
Q:1/8=190
M:3/4
K:C
V:1 treble nm="Violin I"
V:2 treble nm="Violin II"
V:1
"^\n""^Vln I" (ABc)e .a2 |{g} f6- | f2 e2 d2 | Tc2 Bc A2 |"^Vln I" (fed).^g.a.f | (edc).^g .a.e | %6
 (dcB).e.c.A |{c} PB6 ::"^Vln I" (E^F^G).B .e2 |{/d} c6 | (GAB).d .g2 |{/f} e6 | (AGF).B.c.A | %13
 (G"^Vln I"FE).B.c.G | F2 .E2 .TD2 | C6 | (ed^c).A .g2 |{g} f6 | (B"^Vln I"cd).g .f2 |{f} e6 | %20
 (^GAB).d.c.A | (FED).c.B.^g |{^g} .a2 (ed) (cB) | A6 :| %24
V:2
"^Vln II" A,2 A2 .C2 | (DEF).A.d.B |{A} ^G4 E2 | A3 (A,B,C) |"^Vln II" D2 F2 A2 | C2 E2 A,2 | %6
 B,2 ^G,2 A,2 | E2 (E^F)^GE ::"^Vln II" ^G,2 E2 G,2 | (A,B,C)EAA, | B,2 G,2 B,2 | (CDE)GcC | %12
 F2 A,2 D2 | E2"^Vln II" G,2 C2 | A,2 G,2 B,2 | (CEGceg) | A,2 A2 ^C2 | (DEF)AdD | %18
"^Vln II" G,2 B,2 G,2 | (CDEGce) | B,2 E2 A,2 | D3 EDE | CD E2 E2 | A,6 :| %24

